**kern
*staff1
!!pagebreak:original
*I"P1
*clefG2
*k[]
*M3/4
4g/
=1
2ee\
4ee\
=2
2ee\
4ee\
=3
2ee\
4ee\
=4
2ee\
4ee\
=5
2.ee\
=6
8cc\L
8g\
8a\
8b\
8cc\
8dd\J
=7
8ee\L
8b\
8cc\
8dd\
8ee\
8ff\J
=8
8gg\L
8ff#\
8gg\
8ffn\
8ee\
8dd\J
*-
